!!!!SEGMENT: pl-cz--ii-116--002_jeric--partita-b-menuetto.krn
!!!cenid: 18xx:2470
!!!COM: Jeric
!!!COM-rismID: pe30098283
!!!CDT: ~1800-~1899
!!!CNT:
!!!OPR: Partita B
!!!OTL: Menuetto
!!!OMV: 002
!!!PDT: 1801
!!!AGN: Secular; Partita
!!!SMS-siglum: PL-CZ
!!!SMS-shelfmark: II-116
!!!SMS-shelfwork: 001-002 M
!!!SMS-variant:
!!!SMS-altvar:
!!!NIFC-rismSourceID: 300000527
!!!NIFC-rismChildID: 300000527
!!!NIFC-islandoraID: pl-cz:3221
!!!URL-pdf-islandora: https://repozytorium.nifc.pl/islandora/object/pl-cz%3A3221/datastream/PDF/view
!!!URL-scan: https://polish.musicsources.pl/pl/lokalizacje/galeria/rekopisy/691 @EN{Scan on Polish Music Sources Website} @PL{Skany w portalu Dziedzictwo Muzyki Polskiej w otwartym dostępie}
!!!IIIF:
!!!ONB-nifc: UWAGA: części Partity: 1. Allegro, 2. Menuetto, 3. Andante, 4. Menuetto, 5. Rondo. W Particie 2 Menuety (002 i 004). Kontynuacja partii Fagotu na skanie 0008, str. 8
!!!AIN: 2 clars 2 empty 1 fagot
!!!key:
**kern	**dynam	**kern	**dynam	**kern	**dynam	**kern	**dynam	**kern	**dynam
*part5	*part5	*part4	*part4	*part3	*part3	*part2	*part2	*part1	*part1
*staff5	*	*staff4	*	*staff3	*	*staff2	*	*staff1	*
*Ifagot	*	*Iempty	*	*Iempty	*	*Iclars	*	*Iclars	*
*I"Fagotto	*	*I"Cornu Secondo in B	*	*I"Cornu Primo in B	*	*I"Clarinetto Secundo in B.	*	*I"Clarinetto Primo in B.	*
*I'Fag.	*	*I'cor 2 in B	*	*I'cor 1 in B	*	*I'cl 2 in B	*	*I'cl 1 in B	*
*clefF4	*	*clefG2	*	*clefG2	*	*clefG2	*	*clefG2	*
*	*	*ITrd1c2	*	*ITrd1c2	*	*ITrd1c2	*	*ITrd1c2	*
*k[b-e-]	*	*k[b-e-]	*	*k[b-e-]	*	*k[b-e-]	*	*k[b-e-]	*
*B-:	*	*B-:	*	*B-:	*	*B-:	*	*B-:	*
*M3/4	*	*M3/4	*	*M3/4	*	*M3/4	*	*M3/4	*
=1	=1	=1	=1	=1	=1	=1	=1	=1	=1
!	!LO:DY:rj:t=p&colon;	!LO:TX:a:t=1.	!	!LO:TX:a:t=1.	!	!	!LO:DY:rj:t=p&colon;	!	!LO:DY:rj:t=p&colon;
(4d\	p	2.r	.	2.r	.	8F/	p	(4ff\	p
.	.	.	.	.	.	4F/	.	.	.
4c\)	.	.	.	.	.	.	.	4ee-\)	.
.	.	.	.	.	.	4F/	.	.	.
4Bn\	.	.	.	.	.	.	.	4dd\	.
.	.	.	.	.	.	8F/	.	.	.
=2	=2	=2	=2	=2	=2	=2	=2	=2	=2
4c\	.	4r	.	4r	.	4F/	.	4ee-\	.
!	!	!	!	!	!LO:DY:rj:t=p.	!	!	!	!
4r	.	4F/	.	4f/	p	4r	.	2r	.
4r	.	4F/	.	4f/	.	4r	.	.	.
=3	=3	=3	=3	=3	=3	=3	=3	=3	=3
!	!	!LO:TX:a:t=1.	!	!LO:TX:a:t=1.	!	!	!	!	!
(4c\	.	2.r	.	2.r	.	8F/	.	(4ee-\	.
.	.	.	.	.	.	4F/	.	.	.
4B-X\)	.	.	.	.	.	.	.	4dd\)	.
.	.	.	.	.	.	4F/	.	.	.
4A\	.	.	.	.	.	.	.	4cc\	.
.	.	.	.	.	.	8F/	.	.	.
=4	=4	=4	=4	=4	=4	=4	=4	=4	=4
4B-\	.	4r	.	4r	.	4F/	.	4dd\	.
4r	.	4B-/	.	4b-\	.	4r	.	2r	.
4r	.	4B-/	.	4b-\	.	4r	.	.	.
=5	=5	=5	=5	=5	=5	=5	=5	=5	=5
!	!LO:DY:rj:t=fu	!	!	!	!	!	!LO:DY:rj:t=fu	!	!LO:DY:rj:t=fu
4F\	f	4r	.	4r	.	2E-/	f	8a\L	f
.	.	.	.	.	.	.	.	8cc\	.
!	!	!	!LO:DY:t=fu	!	!LO:DY:t=fu	!	!	!	!
4FF/	.	4f/	f	4cc\	f	.	.	8ff\	.
.	.	.	.	.	.	.	.	8ee-\J	.
4BB-/	.	4b-\	.	4dd\	.	4D/	.	8dd\L	.
.	.	.	.	.	.	.	.	8b-\J	.
=6	=6	=6	=6	=6	=6	=6	=6	=6	=6
4F\	.	4r	.	4r	.	4E-/	.	8a\L	.
.	.	.	.	.	.	.	.	8cc\	.
4FF/	.	8f/L	.	8cc\L	.	4e-/	.	8ff\	.
.	.	8f/J	.	8cc\	.	.	.	8ee-\J	.
4BB-/	.	8b-\L	.	8dd\	.	8d/L	.	8dd\L	.
.	.	8f\J	.	8cc\J	.	8c/J	.	8ee-\J	.
=7	=7	=7	=7	=7	=7	=7	=7	=7	=7
4B-\	.	4d/	.	4b-\	.	8d\L	.	8ff\L	.
.	.	.	.	.	.	8b-\J	.	8dd\	.
4BB-/	.	8r	.	8r	.	8ee-\L	.	8gg\	.
.	.	(8d\L	.	(8b-\L	.	8dd\	.	8ff\J	.
4B-\	.	8f\)	.	8cc\)	.	8cc\	.	8ee-\L	.
.	.	8b-\J	.	8dd\J	.	8b-\J	.	8dd\J	.
!	!	!	!	!	!	!LO:LB:g=original	!	!	!
=8	=8	=8	=8	=8	=8	=8	=8	=8	=8
4F\	.	4b-\	.	4dd\	.	4b-\	.	4dd\	.
!LO:TX:t=P:problem=mixed beam	!	!	!	!	!	!	!	!	!
8FF/L	.	4f/	.	4cc\	.	4a\	.	4cc\	.
16F\L	.	.	.	.	.	.	.	.	.
!LO:TX:a:t=1.	!	!	!	!	!	!	!	!	!
16A\JJ	.	.	.	.	.	.	.	.	.
16G\LL	.	4r	.	4r	.	4r	.	4r	.
16B-\	.	.	.	.	.	.	.	.	.
16A\	.	.	.	.	.	.	.	.	.
16c\JJ	.	.	.	.	.	.	.	.	.
!LO:LB:g=original	!	!	!	!	!	!	!	!LO:LB:g=original	!
=9:|	=9	=9	=9	=9	=9	=9	=9	=9	=9
!LO:TX:a:t=2	!	!LO:TX:t=P:problem=fagot ma nieco inaczej rozwiązaną repetycję	!	!LO:TX:t=P:problem=fagot ma nieco inaczej rozwiązaną repetycję	!	!LO:TX:t=P:problem=fagot ma nieco inaczej rozwiązaną repetycję	!	!LO:TX:t=P:problem=fagot ma nieco inaczej rozwiązaną repetycję	!
4F\	.	2.ryy	.	2.ryy	.	2.ryy	.	2.ryy	.
4FF/	.	.	.	.	.	.	.	.	.
4r	.	.	.	.	.	.	.	.	.
=10|:	=10:|!|:	=10:|!|:	=10:|!|:	=10:|!|:	=10:|!|:	=10:|!|:	=10:|!|:	=10:|!|:	=10:|!|:
!	!	!	!LO:DY:rj:t=p&colon;	!	!LO:DY:t=p&colon;	!	!LO:DY:rj:t=p&colon;	!	!LO:DY:t=p&colon;
8A\L	.	2F/	p	2f/	p	8c/L	p	(8cc\L	p
(8B-\	.	.	.	.	.	(8d/J	.	8dd\	.
8c\	.	.	.	.	.	8e-/L	.	8ee-\	.
8A\)	.	.	.	.	.	8c/)	.	8cc\	.
8B-\	.	4B-/	.	4f/	.	8d/	.	8dd\)	.
8d\J	.	.	.	.	.	8B-/J	.	8b-\J	.
!	!	!LO:LB:g=original	!	!LO:LB:g=original	!	!	!	!	!
=11	=11	=11	=11	=11	=11	=11	=11	=11	=11
4f\	.	8A/L	.	4f/	.	4c/	.	4cc\	.
.	.	8F/	.	.	.	.	.	.	.
4r	.	8A/	.	4f/	.	4r	.	4r	.
.	.	8F/	.	.	.	.	.	.	.
4r	.	8A/	.	4f/	.	4r	.	4r	.
.	.	8F/J	.	.	.	.	.	.	.
=12	=12	=12	=12	=12	=12	=12	=12	=12	=12
8B-\L	.	2F/	.	2f/	.	8d/L	.	(8dd\L	.
8c\	.	.	.	.	.	(8e-/	.	8ee-\	.
8d\	.	.	.	.	.	8f/	.	8ff\	.
8B-\	.	.	.	.	.	8d/)	.	8dd\	.
8c\	.	4F/	.	4f/	.	8e-/	.	8ee-\)	.
8A\J	.	.	.	.	.	8c/J	.	8cc\J	.
=13	=13	=13	=13	=13	=13	=13	=13	=13	=13
!	!	!	!	!LO:TX:t=P:problem=mixed beam	!	!	!	!	!
4B-\	.	8B-/L	.	8b-\L	.	4d/	.	4dd\	.
.	.	8B-/	.	8d/	.	.	.	.	.
4r	.	8d/	.	8f/	.	4r	.	4r	.
.	.	8B-/	.	8d/	.	.	.	.	.
4r	.	8d/	.	8f/	.	4r	.	4r	.
.	.	8B-/J	.	8d/J	.	.	.	.	.
=14	=14	=14	=14	=14	=14	=14	=14	=14	=14
*	*	*	*	*2\right	*	*	*	*	*
!	!LO:DY:rj:t=fu	!	!LO:DY:rj:t=fu	!	!LO:DY:rj:t=fu	!	!LO:DY:rj:t=fu	!	!LO:DY:t=fu
4BB-/	f	2.d/	f	2.b-\	f	(4dd\	f	(4ff\	f
4BBB-/	.	.	.	.	.	4b-\)	.	4dd\)	.
4r	.	.	.	.	.	4r	.	8r	.
.	.	.	.	.	.	.	.	8ff\	.
=15	=15	=15	=15	=15	=15	=15	=15	=15	=15
.	.	.	.	.	.	.	.	8qqff/	.
4F\	.	2.f/	.	2.b-\	.	(4cc\	.	(4ee-\	.
4FF/	.	.	.	.	.	4a\)	.	4cc\)	.
4r	.	.	.	.	.	4r	.	8r	.
.	.	.	.	.	.	.	.	8ee-\	.
=16	=16	=16	=16	=16	=16	=16	=16	=16	=16
4BB-/	.	4b-\	.	4dd\	.	4b-\	.	4dd\	.
4D\	.	4r	.	4r	.	4d/	.	4b-\	.
4F\	.	4f/	.	4cc\	.	4e-/	.	(16cc\LL	.
.	.	.	.	.	.	.	.	16ee-\)	.
.	.	.	.	.	.	.	.	16g\	.
.	.	.	.	.	.	.	.	16cc\JJ	.
=17	=17	=17	=17	=17	=17	=17	=17	=17	=17
4BB-/	.	4d/	.	4b-\	.	4d/	.	4b-\	.
4BBB-/	.	4r	.	4r	.	4r	.	4r	.
4r	.	4r	.	4r	.	4r	.	4r	.
!	!	!LO:LB:g=original	!	!LO:LB:g=original	!	!LO:LB:g=original	!	!LO:LB:g=original	!
=18:|!|:	=18:|!|:	=18:|!|:	=18:|!|:	=18:|!|:	=18:|!|:	=18:|!|:	=18:|!|:	=18:|!|:	=18:|!|:
*k[b-e-]	*	*	*	*	*	*	*	*	*
*M3/4	*	*M3/4	*	*M3/4	*	*M3/4	*	*M3/4	*
!	!	!	!	!	!	!LO:TX:a:t=Trio	!	!	!
!LO:TX:a:t=Trio	!	!LO:TX:a:t=Trio	!	!LO:TX:a:t=Trio	!	!LO:TX:a:t=2.	!	!LO:TX:a:t=Trio	!
!	!	!	!	!	!	!LO:N:vis=0	!	!	!
4B-\	.	16d\LL	.	(16b-\LL	.	1.r	.	2.r	.
.	.	16f\	.	16cc\	.	.	.	.	.
.	.	16b-\	.	16dd\)	.	.	.	.	.
.	.	16f\JJ	.	16cc\JJ	.	.	.	.	.
!LO:TX:t=P:problem=zapis poprawiany	!	!	!	!	!	!	!	!	!
*	*	*tremolo	*	*tremolo	*	*	*	*	*
4d\	.	8d'/L	.	8b-'\L	.	.	.	.	.
.	.	8d'/	.	8b-'\	.	.	.	.	.
4B-\	.	8d'/	.	8b-'\	.	.	.	.	.
.	.	8d'/J	.	8b-'\J	.	.	.	.	.
*	*	*Xtremolo	*	*Xtremolo	*	*	*	*	*
=19	=19	=19	=19	=19	=19	=19	=19	=19	=19
(8d\L	.	4f\	.	8b-\L	.	.	.	4r	.
8c\J)	.	.	.	8a\J	.	.	.	.	.
4c\	.	4F/	.	4a\	.	.	.	8r	.
.	.	.	.	.	.	.	.	8f\L	.
4r	.	4r	.	4r	.	.	.	8a\	.
.	.	.	.	.	.	.	.	8b-\J	.
=20	=20	=20	=20	=20	=20	=20	=20	=20	=20
!	!	!LO:TX:a:t=2.	!	!LO:TX:a:t=2	!	!	!LO:DY:rj:t=p&colon;	!	!
!	!	!LO:N:vis=0	!	!LO:N:vis=0	!	!	!	!	!
4F\	.	1.r	.	1.r	.	(16a\LL	p	16cc\LL	.
.	.	.	.	.	.	16b-\	.	16dd\	.
.	.	.	.	.	.	16cc\	.	16ee-\	.
.	.	.	.	.	.	16b-\JJ)	.	16dd\JJ	.
*	*	*	*	*	*	*tremolo	*	*tremolo	*
*	*	*	*	*	*	*2\right	*	*2\right	*
4A\	.	.	.	.	.	8a'\L	.	8cc'\L	.
.	.	.	.	.	.	8a'\	.	8cc'\	.
4F\	.	.	.	.	.	8a'\	.	8cc'\	.
.	.	.	.	.	.	8a'\J	.	8cc'\J	.
*	*	*	*	*	*	*Xtremolo	*	*Xtremolo	*
=21	=21	=21	=21	=21	=21	=21	=21	=21	=21
4B-\	.	.	.	.	.	8a\L	.	8cc\L	.
.	.	.	.	.	.	8b-\J	.	8dd\J	.
4BB-/	.	.	.	.	.	4b-\	.	(16dd\LL	.
.	.	.	.	.	.	.	.	16b-\)	.
.	.	.	.	.	.	.	.	16cc\	.
.	.	.	.	.	.	.	.	16dd\JJ	.
4r	.	.	.	.	.	4r	.	(16ee-\LL	.
.	.	.	.	.	.	.	.	16ff\	.
.	.	.	.	.	.	.	.	16gg\	.
.	.	.	.	.	.	.	.	16aa\JJ)	.
=22	=22	=22	=22	=22	=22	=22	=22	=22	=22
!	!	!	!LO:DY:rj:t=fu	!	!	!	!LO:DY:rj	!	!
8.g\L	.	4B-/	f	4b-\	.	8.b-\L	fz	8.bb-\L	fz
16f\Jk	.	.	.	.	.	16a\Jk	.	16aa\Jk	.
*	*	*	*	*	*	*tremolo	*	*	*
8e-\L	.	4r	.	4r	.	8g'\L	.	8gg\L	.
8e-\	.	.	.	.	.	8g'\	.	8gg\	.
8e-\	.	4r	.	4r	.	8g'\	.	8gg\	.
8e-\J	.	.	.	.	.	8g'\J	.	8gg\J	.
*	*	*	*	*	*	*Xtremolo	*	*	*
=23	=23	=23	=23	=23	=23	=23	=23	=23	=23
!	!	!	!	!	!	!	!LO:DY:rj	!	!
8.e-\L	.	4B-/	.	4b-\	.	8.g/L	fz	8.gg\L	fz
16d\Jk	.	.	.	.	.	16f/Jk	.	16ff\Jk	.
*tremolo	*	*	*	*	*	*tremolo	*	*	*
*2\right	*	*	*	*	*	*	*	*	*
8c\L	.	4r	.	4r	.	8e-'/L	.	8ee-\L	.
8c\	.	.	.	.	.	8e-'/	.	8ee-\	.
8c\	.	4e-/	.	4cc\	.	8e-'/	.	8ee-\	.
8c\J	.	.	.	.	.	8e-'/J	.	8ee-\J	.
*Xtremolo	*	*	*	*	*	*Xtremolo	*	*	*
=24	=24	=24	=24	=24	=24	=24	=24	=24	=24
4B-\	.	4b-\	.	4dd\	.	4d/	.	4dd\	.
4r	.	4r	.	4r	.	4r	.	4r	.
4G\	.	4cc\	.	4cc\	.	4B-/	.	4eeX\	.
=25	=25	=25	=25	=25	=25	=25	=25	=25	=25
4F\	.	4f/	.	4cc\	.	4A/	.	4ff\	.
4FF/	.	4r	.	4r	.	4r	.	4r	.
4r	.	4r	.	4r	.	4r	.	4r	.
!LO:LB:g=original	!	!	!	!LO:LB:g=original	!	!LO:LB:g=original	!	!	!
=26:|!|:	=26:|!|:	=26:|!|:	=26:|!|:	=26:|!|:	=26:|!|:	=26:|!|:	=26:|!|:	=26:|!|:	=26:|!|:
!	!LO:DY:rj:t=p&colon;	!	!LO:DY:rj:t=p&colon;	!	!LO:DY:rj:t=p&colon;	!	!	!	!
8FF/L	p	2.f/	p	2.cc\	p	2r	.	2r	.
16GG/L	.	.	.	.	.	.	.	.	.
16AA/JJ	.	.	.	.	.	.	.	.	.
16BB-/LL	.	.	.	.	.	.	.	.	.
16C/	.	.	.	.	.	.	.	.	.
16D/	.	.	.	.	.	.	.	.	.
16E-/JJ	.	.	.	.	.	.	.	.	.
4F\	.	.	.	.	.	8r	.	8r	.
!	!	!	!	!	!	!	!	!	!LO:DY:t=p&colon;
.	.	.	.	.	.	8cc\	p	8ee-X\	p
!	!	!	!	!	!	!	!	!LO:LB:g=original	!
=27	=27	=27	=27	=27	=27	=27	=27	=27	=27
.	.	.	.	.	.	8qqcc/	.	8qqee-/	.
4BB-/	.	4d/	.	4b-\	.	(4b-\	.	4dd\	.
!LO:TX:t=P:problem=mixed beam	!	!	!	!	!	!	!	!	!
16FF/LL	.	4f/	.	4cc\	.	4a\)	.	4cc\	.
16f\	.	.	.	.	.	.	.	.	.
16e-\	.	.	.	.	.	.	.	.	.
16f\JJ	.	.	.	.	.	.	.	.	.
16c\LL	.	4r	.	4r	.	4r	.	4r	.
16f\	.	.	.	.	.	.	.	.	.
16A\	.	.	.	.	.	.	.	.	.
16c\JJ	.	.	.	.	.	.	.	.	.
=28	=28	=28	=28	=28	=28	=28	=28	=28	=28
!LO:TX:t=P:problem=mixed beam	!	!	!	!	!	!	!	!	!
16F\LL	.	2.f/	.	2.cc\	.	2r	.	4r	.
16FF/	.	.	.	.	.	.	.	.	.
16GG/	.	.	.	.	.	.	.	.	.
16AA/JJ	.	.	.	.	.	.	.	.	.
16BB-/LL	.	.	.	.	.	.	.	4r	.
16C/	.	.	.	.	.	.	.	.	.
16D/	.	.	.	.	.	.	.	.	.
16E-/JJ	.	.	.	.	.	.	.	.	.
(16F\LL	.	.	.	.	.	8r	.	8r	.
16C\	.	.	.	.	.	.	.	.	.
16AA\)	.	.	.	.	.	8cc\	.	8ee-\	.
16FF\JJ	.	.	.	.	.	.	.	.	.
!	!	!LO:LB:g=original	!	!LO:LB:g=original	!	!	!	!	!
=29	=29	=29	=29	=29	=29	=29	=29	=29	=29
.	.	.	.	.	.	8qqcc/	.	8qqee-/	.
4BB-/	.	4d/	.	4b-\	.	(4b-\	.	4dd\	.
4FF/	.	4f/	.	4cc\	.	4a\)	.	16cc\LL	.
.	.	.	.	.	.	.	.	(16f\	.
.	.	.	.	.	.	.	.	16g\	.
.	.	.	.	.	.	.	.	16a\JJ	.
4r	.	4r	.	4r	.	4r	.	16b-\LL	.
.	.	.	.	.	.	.	.	16cc\)	.
.	.	.	.	.	.	.	.	16dd\	.
.	.	.	.	.	.	.	.	16ee-\JJ	.
=30	=30	=30	=30	=30	=30	=30	=30	=30	=30
!	!LO:DY:rj:t=fu	!	!LO:DY:rj:t=fu	!	!LO:DY:rj:t=fu	!	!LO:DY:rj	!	!
(4d\	f	2.d/	f	2.b-\	f	(4f^/	f	4ff\	.
4B-\)	.	.	.	.	.	4d/)	.	8dd\L	.
.	.	.	.	.	.	.	.	16bb-\L	.
.	.	.	.	.	.	.	.	(16aa\JJ	.
4r	.	.	.	.	.	4r	.	16gg\LL	.
.	.	.	.	.	.	.	.	16ff\)	.
.	.	.	.	.	.	.	.	16ee-\	.
.	.	.	.	.	.	.	.	16dd\JJ	.
=31	=31	=31	=31	=31	=31	=31	=31	=31	=31
(4c\	.	4F/	.	2.cc\	.	(4e-/	.	4ee-\	.
4A\)	.	2f/	.	.	.	4d/)	.	8cc\L	.
.	.	.	.	.	.	.	.	16ccc\L	.
.	.	.	.	.	.	.	.	(16bb-\JJ	.
4r	.	.	.	.	.	4r	.	16aa\LL	.
.	.	.	.	.	.	.	.	16gg\)	.
.	.	.	.	.	.	.	.	16ff\	.
.	.	.	.	.	.	.	.	16ee-\JJ	.
=32	=32	=32	=32	=32	=32	=32	=32	=32	=32
4B-\	.	4b-\	.	4dd\	.	4F/	.	4dd\	.
4E-\	.	4r	.	4r	.	4G/	.	8ff\L	.
.	.	.	.	.	.	.	.	(8ee-\	.
4F\	.	4f/	.	4cc\	.	4E-/	.	8cc\)	.
.	.	.	.	.	.	.	.	8a\J	.
=33	=33	=33	=33	=33	=33	=33	=33	=33	=33
!	!	!	!	!	!	!LO:TX:b:t=M&colon;D&colon;C&colon;	!	!	!
4BB-/	.	4d/	.	4b-\	.	4D/	.	4b-\	.
4B-\	.	4r	.	4r	.	4r	.	4r	.
!LO:TX:b:t=M&colon;D&colon;C&colon;	!	!LO:TX:a:t=Menuetto D&colon; C&colon;	!	!LO:TX:a:t=Menuetto Da Capo.	!	!	!	!LO:TX:b:t=M&colon;D&colon;C&colon;	!
4r	.	4r	.	4r	.	4r	.	4r	.
==	==	==	==	==	==	==	==	==	==
*-	*-	*-	*-	*-	*-	*-	*-	*-	*-
!!!system-decoration: s1,s2,s3,s4,s5
!!!ENC: Andrzej Gręziak
!!!END: 2021-06-17
!!!EED: Leszek Kubiak
!!!EEV: 2021-06-23
!!!YEC: Copyright 2022 Narodowy Instytut Fryderyka Chopina (https://polishscores.org)
!!!YEM: License CC-BY-4.0 (https://creativecommons.org/licenses/by/4.0)
